!!!COM: Bach, Johann Sebastian
!!!OTL: O Lamm Gottes, unschuldig
!!!ONM: No. 165
!!!OCL: Erk
!!!YOE: Riemenschneider, Albert
!!!OPR: 371 Harmonized Chorales and 69 Chorale Melodies with Figured Bass
!!!OPT: Bach Chorale Harmonizations
**kern	**kern	**kern	**kern
! bass	! tenor	! alto	! soprano
*M4/4	*M4/4	*M4/4	*M4/4
*F:	*F:	*F:	*F:
8FF	8A	4c	4f
8GG	8B-	.	.
=1	=1	=1	=1
4AA	[4c	16c	4f
.	.	16d	.
.	.	8e-	.
[4BB-	8c]	8e-	4f
.	16B-	8d	.
.	16A	.	.
4BB-]	4G	8en	4cc
.	.	8c	.
8AA	[4c	8f	4cc
8GG	.	8e	.
=2	=2	=2	=2
4FF	4c]	4a	2dd
4GG	4Bn	8g	.
.	.	8f	.
4C;	4G;	4e;	4cc;
4AA	4A	[4e	4cc
=3	=3	=3	=3
4D	4A	8e]	4f
.	.	[8d	.
4E	4G	8d]	4g
.	.	8c	.
8F	4F	8c	4a
8E	.	16d	.
.	.	16e	.
8D	8F	[4f	4b-
8BB-	8d	.	.
=4	=4	=4	=4
4C	4c	8f]	4a
.	.	16e	.
.	.	16d	.
4CC	8.c	4e	8g
.	.	.	8f
.	16B-	.	.
4FF;	4A;	4c;	4f;
!! Repeat from the beginning.
8FF	8A	4c	4f
8GG	8B-	.	.
=1	=1	=1	=1
4AA	[4c	16c	4f
.	.	16d	.
.	.	8e-	.
[4BB-	8c]	8e-	4f
.	16B-	8d	.
.	16A	.	.
4BB-]	4G	8en	4cc
.	.	8c	.
8AA	[4c	8f	4cc
8GG	.	8e	.
=2	=2	=2	=2
4FF	4c]	4a	2dd
4GG	4Bn	8g	.
.	.	8f	.
4C;	4G;	4e;	4cc;
4AA	4A	[4e	4cc
=3	=3	=3	=3
4D	4A	8e]	4f
.	.	[8d	.
4E	4G	8d]	4g
.	.	8c	.
8F	4F	8c	4a
8E	.	16d	.
.	.	16e	.
8D	8F	[4f	4b-
8BB-	8d	.	.
=4	=4	=4	=4
4C	4c	8f]	4a
.	.	16e	.
.	.	16d	.
4CC	8.c	4e	8g
.	.	.	8f
.	16B-	.	.
4FF;	4A;	4c;	4f;
!! Continuing.
[4F	4c	4f	4a
=5	=5	=5	=5
8F]	4c	4f	4a
8E	.	.	.
8D	4d	4f	4a
8C	.	.	.
4BBn	4d	4f	4g
4C#	4A	4e	4a
=6	=6	=6	=6
8D	8A	8d	8f
8E	8G	[8c	8e
8F	8A	8c]	4d
8G	16G	8Bn	.
.	16F	.	.
4C;	4E;	4G;	4c;
4AA	4F	4e-	4cc
=7	=7	=7	=7
4BB-	8F	8d	4dd
.	8G	8en	.
[4F	8A	8f	4cc
.	8B-	16g	.
.	.	16a	.
8F]	[4c	4g	4cc
8E	.	.	.
4F	8c]	4f	8a
.	8d	.	8b-
=8	=8	=8	=8
8F	4e-	[4a	4cc
8F#	.	.	.
8G	4d	8a]	4b-
8GG	.	[8g	.
4D;	4d;	8g]	4a;
.	.	8f#;	.
8BB-	8d	4g	4dd
8BBn	8fn	.	.
=9	=9	=9	=9
4C	[4en	4g	8cc
.	.	.	8b-
4D	8e]	4f	4a
.	[8d	.	.
4E	8d]	[4g	4g
.	8c	.	.
4F	4c	8g]	4a
.	.	16f	.
.	.	16e	.
=10	=10	=10	=10
8AA	8c	4f	4cc
16BB-	8A	.	.
16C	.	.	.
8D	8F	[4f	4a
8C	8A	.	.
4BB-	4d	4f]	2g
4C	8c	4e	.
.	8B-	.	.
=11	=11	=11	=11
2.FF;	2.A;	2.c;	2.f;
==	==	==	==
*-	*-	*-	*-
!!!CDT: 1685/3//-1750/7/28
!!!OCY: Deutschland
!!!AGN: chorale
!!!AST: Baroque
!!!AIN: vox
!!!YOY: 1941
!!!PPP: New York; London
!!!PPR: G. Schirmer
!!!ENC: David Huron
!!!EED: David Huron
!!!YEN: United States of America
!!!YER: 1992
!!!YEC: Copyright 1992 David Huron
!!!YEM: Rights to all derivative electronic formats reserved.
!!!YER: March 20, 1996
!!!AMT: simple quadruple
!!!EEV: 1.1
